X: 1016
T: Dusty Miller
P: Longways for as many as will
R: minuet
B: "Caledonian Country Dances" printed by John Walsh for John Johnson, London
S: http://imslp.org/wiki/Caledonian_Country_Dances_with_a_Thorough_Bass_(Various)
Z: 2013 John Chambers <jc:trillian.mit.edu>
M: 3/2
L: 1/8
K: G
% - - - - - - - - - - - - - - - - - - - - - - - - -
V: 1
|: B3c d2B2 TA2G2 | F2 A4 c2 B2A2 | B3c d2B2 A2G2 | D2 G4 B2 A2G2 :|
|: B3c d2e2 f2g2 | a2 A4 c2 TB2 A2 | B3c d2e2 Tf3e/f/ | g3a g2B2 A2G2 :|
% - - - - - - - - - - - - - - - - - - - - - - - - -
V: 2 clef=bass middle=d
|: g4 B4 c4 | d4 f4 d4 | g4 B4 c4 | d4 D4 G4 :|
|: g4 f4 e4 | d4 f4 d4 | g4 b4 a4 | g4 G8 :|
% - - - - - - - - - - - - - - - - - - - - - - - - -
%%begintext align
Lead thro' the 2d Cu. and on the outside of the 3d Cu. meet and turn .|
the same up :|
turn Corners :|
Foot :|
and turn :|
%%endtext
